X: 977
T: The humors of Bandon
C: anon.
O: Ireland
B: Francis O'Neill: "The Dance Music of Ireland" (1907) no. 977
R: Long dance, set dance
Z: Transcribed by Frank Nordberg - http://www.musicaviva.com
F: http://www.musicaviva.com/abc/tunes/ireland/oneill-1001/oneill-1001-097
7.abc
M: 6/8
L: 1/8
K: G
F|DGG GFG|(A/B/A)(G F)GA|BGG GFG|(A/B/d)(e f)efe|d2e c2A|(BA)(G F)GA|BGA
FD(F|G3)G2:|
|:c|dgg gfg (g/b/a)g f2a|(g/a/g)f d2e|(f/g/f)d c2e|(d/e/d)c B2d|(c/d/c)B
G2A|(B/c/B)G F2A|(G/A/G)F D2C|
DGG GFG|(A/B/A)(G F)GA|BGG GFG|(A/B/d)(e f)ef|d2e c2A|(BA)(G F)GA|BGA FD(
F|G3)G2:|
W:
W:
W: From Musica Viva - http://www.musicaviva.com
W: the Internet center for free sheet music downloads.


